X: 73
T: Danshui
%%abc-version 2.0
%%abcx-abcm2ps-target-version 5.9.1 (29 Sep 2008)
%%abc-creator hum2abc beta
%%abcx-conversion-date 2013/10/02 07:52:29
%%abc-edited-by Helmut Schaffrath
%%humdrum-veritas 1255683773
%%humdrum-veritas-data 1064268371
%%continueall 1
%%barnumbers 0
L: 1/8
M: 2/4
K: G
e e d B [I:setbarnb 1]| 
d e d B | 
d2e B | 
d4 | 
B> g d B | 
A B A F | 
d G A/ G/ E | 
D4 |]  



